assets/icons/utility/setup_assistant_guide.svg

<?xml version="1.0"?><svg xmlns="http://www.w3.org/2000/svg" width="52" height="52" viewBox="0 0 52 52"><g fill="#fff"><path d="m11.5 24.9c0-0.4-0.5-0.6-0.8-0.4l-4.5 3.7c-0.2 0.2-0.2 0.5-0.2 0.8v15.9c0 1 1.4 1.5 2.3 0.8l7.3-5.7c0.2-0.2 0.3-0.4 0.1-0.7-1.8-2.7-3.6-7.2-4.2-14.4z m9.7 14.9c0.2 0.1 0.4 0.2 0.6 0.2h8.3c0.2 0 0.4-0.1 0.6-0.2 1.2-0.8 6-4.8 6-18.4 0-6.3-1.8-10.7-3.9-13.7-3.1-4.4-6.8-5.7-6.8-5.7s-3.8 1.3-6.9 5.8c-2.1 3-3.8 7.3-3.8 13.6 0 13.6 4.7 17.6 5.9 18.4z m4.7-26.8c3.3 0 6 2.7 6 6s-2.7 6-6 6-6-2.7-6-6 2.7-6 6-6z m19.8 15.2l-4.4-3.7c-0.3-0.3-0.8-0.1-0.8 0.4-0.6 7.2-2.4 11.7-4.1 14.5-0.1 0.2-0.1 0.5 0.1 0.7l7.3 5.7c0.9 0.7 2.2 0.2 2.2-0.8v-16c0-0.3 0-0.6-0.3-0.8z m-13.5 16.3c-0.2-0.3-0.5-0.5-0.8-0.5h-11c-0.3 0-0.7 0.2-0.8 0.5-0.4 0.6-1 1.7-1.4 3.1-0.3 1.2 0.7 2.4 2 2.4h11.4c1.3 0 2.3-1.2 2-2.4-0.4-1.5-1-2.6-1.4-3.1z"></path></g></svg>

<svg xmlns="http://www.w3.org/2000/svg" x="0px" y="0px"
	 width="52px" height="52px" viewBox="0 0 52 52" enable-background="new 0 0 52 52" xml:space="preserve">
<g>
	<path fill="#FFFFFF" d="M11.5,24.9c0-0.4-0.5-0.6-0.8-0.4l-4.5,3.7C6,28.4,6,28.7,6,29v15.9c0,1,1.4,1.5,2.3,0.8l7.3-5.7
		c0.2-0.2,0.3-0.4,0.1-0.7C13.9,36.6,12.1,32.1,11.5,24.9z"/>
	<path fill="#FFFFFF" d="M21.2,39.8c0.2,0.1,0.4,0.2,0.6,0.2h8.3c0.2,0,0.4-0.1,0.6-0.2c1.2-0.8,6-4.8,6-18.4
		c0-6.3-1.8-10.7-3.9-13.7C29.7,3.3,26,2,26,2s-3.8,1.3-6.9,5.8c-2.1,3-3.8,7.3-3.8,13.6C15.3,35,20,39,21.2,39.8z M25.9,13
		c3.3,0,6,2.7,6,6s-2.7,6-6,6s-6-2.7-6-6S22.6,13,25.9,13z"/>
	<path fill="#FFFFFF" d="M45.7,28.2l-4.4-3.7c-0.3-0.3-0.8-0.1-0.8,0.4c-0.6,7.2-2.4,11.7-4.1,14.5c-0.1,0.2-0.1,0.5,0.1,0.7
		l7.3,5.7C44.7,46.5,46,46,46,45V29C46,28.7,46,28.4,45.7,28.2z"/>
	<path fill="#FFFFFF" d="M32.2,44.5C32,44.2,31.7,44,31.4,44h-5.5h-5.5c-0.3,0-0.7,0.2-0.8,0.5c-0.4,0.6-1,1.7-1.4,3.1
		c-0.3,1.2,0.7,2.4,2,2.4h5.7h5.7c1.3,0,2.3-1.2,2-2.4C33.2,46.1,32.6,45,32.2,44.5z"/>
</g>
</svg>
